X:165
T:Reel 165
M:4/4
K:Dmix
L:1/8
AG|F2DE FGAF|GBAG FDDE|FEDE FGAF|GBAF D2|G2|E|FEFG ABcA|GEEc GECE|FEDE FGAd|cAGE D2|DE|F2FE FGAF|EGGB cBcG|FEFG ABcA|GEcE D2DE|FEFE FGAF|GEcE DECE|FEFG AGFA|GBAF D2|
